icons/helm-light.svg

<svg width="256" height="256" viewBox="0 0 256 256" fill="none" xmlns="http://www.w3.org/2000/svg">
<path d="M196 0H60C26.8629 0 0 26.8629 0 60V196C0 229.137 26.8629 256 60 256H196C229.137 256 256 229.137 256 196V60C256 26.8629 229.137 0 196 0Z" fill="#F4F2ED"/>
<path d="M142.907 103.864H130.385V152.758H159.602V139.64H142.907V103.864Z" fill="#0F1689"/>
<path d="M178.087 103.864H173.913V152.758H186.434V127.714L198.956 139.044L211.478 127.714V152.758H224V103.864H219.229L218.037 104.46L215.652 106.249L198.956 121.752L183.453 107.441L180.472 105.056L178.087 103.864Z" fill="#0F1689"/>
<path d="M44.5217 103.864H32V152.758H44.5217V134.273H59.4286V152.758H71.9503V103.864H59.4286V121.155H44.5217V103.864Z" fill="#0F1689"/>
<path d="M116.074 103.864H86.8569V152.758H116.074V142.025H99.3787V133.081H114.286V122.348H99.3787V114.596H116.074V103.864Z" fill="#0F1689"/>
<path d="M122.807 27.9813C120.725 35.8102 120.712 43.7507 122.328 51.504L135.882 51.4405C137.162 45.4315 137.359 39.1197 136.469 33.1465C136.053 29.6421 135.29 26.3329 133.54 23.2149C133.251 22.3746 132.715 21.5822 132.079 20.937C130.124 18.7548 127.709 18.8384 125.866 21.2436L125.467 21.8329C124.171 23.7483 123.415 25.815 122.807 27.9813Z" fill="#0F1689"/>
<path d="M70.2125 49.4844C72.8767 57.1348 77.3171 63.7177 83.0007 69.2331L94.1903 61.5827C91.8814 55.8894 88.5067 50.5519 84.4216 46.104C82.1126 43.4353 79.626 41.1224 76.429 39.5212C75.7185 38.9874 74.8305 38.6316 73.9424 38.4537C71.1006 37.742 69.1469 39.1653 68.9692 42.1899V42.9015C68.9692 45.2145 69.5021 47.3494 70.2125 49.4844Z" fill="#0F1689"/>
<path d="M189.543 49.4844C186.879 57.1348 182.438 63.7177 176.755 69.2331L165.565 61.5827C167.874 55.8894 171.249 50.5519 175.334 46.104C177.643 43.4353 180.129 41.1224 183.326 39.5212C184.037 38.9874 184.925 38.6316 185.813 38.4537C188.655 37.742 190.609 39.1653 190.786 42.1899V42.9015C190.786 45.2145 190.253 47.3494 189.543 49.4844Z" fill="#0F1689"/>
<path d="M122.807 228.594C120.725 220.765 120.712 212.824 122.328 205.071L135.882 205.134C137.162 211.143 137.359 217.455 136.469 223.428C136.053 226.933 135.29 230.242 133.54 233.36C133.251 234.2 132.715 234.993 132.079 235.638C130.124 237.82 127.709 237.737 125.866 235.331L125.467 234.742C124.171 232.827 123.415 230.76 122.807 228.594Z" fill="#0F1689"/>
<path d="M70.2125 207.091C72.8767 199.44 77.3171 192.857 83.0007 187.342L94.1903 194.992C91.8814 200.686 88.5067 206.023 84.4216 210.471C82.1126 213.14 79.626 215.453 76.429 217.054C75.7185 217.588 74.8305 217.943 73.9424 218.121C71.1006 218.833 69.1469 217.41 68.9692 214.385V213.673C68.9692 211.36 69.5021 209.226 70.2125 207.091Z" fill="#0F1689"/>
<path d="M189.543 207.091C186.879 199.44 182.438 192.857 176.755 187.342L165.565 194.992C167.874 200.686 171.249 206.023 175.334 210.471C177.643 213.14 180.129 215.453 183.326 217.054C184.037 217.588 184.925 217.943 185.813 218.121C188.655 218.833 190.609 217.41 190.786 214.385V213.673C190.786 211.36 190.253 209.226 189.543 207.091Z" fill="#0F1689"/>
<path fill-rule="evenodd" clip-rule="evenodd" d="M192.684 173.031C178.607 192.535 155.68 205.23 129.788 205.23C103.897 205.23 80.9697 192.535 66.8921 173.031H86.4946C97.686 184.143 113.047 191 129.996 191C146.945 191 162.305 184.143 173.497 173.031H192.684ZM194.339 84.7825C180.446 63.9342 156.721 50.1985 129.788 50.1985C102.855 50.1985 79.1308 63.9342 65.2373 84.7825H85.6902C96.9442 73.1924 112.637 66 129.996 66C147.355 66 163.047 73.1924 174.301 84.7825H194.339Z" fill="#0F1689"/>
</svg>

<svg xmlns="http://www.w3.org/2000/svg" width="256" height="256" fill="none"><path fill="#F4F2ED" d="M196 0H60C26.863 0 0 26.863 0 60v136c0 33.137 26.863 60 60 60h136c33.137 0 60-26.863 60-60V60c0-33.137-26.863-60-60-60"/><path fill="#0F1689" d="M142.907 103.864h-12.522v48.894h29.217V139.64h-16.695zm35.18 0h-4.174v48.894h12.521v-25.044l12.522 11.33 12.522-11.33v25.044H224v-48.894h-4.771l-1.192.596-2.385 1.789-16.696 15.503-15.503-14.311-2.981-2.385zm-133.565 0H32v48.894h12.522v-18.485h14.907v18.485H71.95v-48.894H59.43v17.291H44.522zm71.552 0H86.857v48.894h29.217v-10.733H99.379v-8.944h14.907v-10.733H99.379v-7.752h16.695zm6.733-75.883c-2.082 7.83-2.095 15.77-.479 23.523l13.554-.063c1.28-6.01 1.477-12.321.587-18.294-.416-3.505-1.179-6.814-2.929-9.932-.289-.84-.825-1.633-1.461-2.278-1.955-2.182-4.37-2.099-6.213.307l-.399.589c-1.296 1.915-2.052 3.982-2.66 6.148M70.213 49.484c2.664 7.65 7.104 14.234 12.788 19.75l11.19-7.651c-2.31-5.694-5.684-11.031-9.77-15.479-2.308-2.669-4.795-4.982-7.992-6.583-.71-.534-1.599-.89-2.487-1.067-2.841-.712-4.795.711-4.973 3.736v.712c0 2.313.533 4.447 1.244 6.582m119.33 0c-2.664 7.65-7.105 14.234-12.788 19.75l-11.19-7.651c2.309-5.694 5.684-11.031 9.769-15.479 2.309-2.669 4.795-4.982 7.992-6.583.711-.534 1.599-.89 2.487-1.067 2.842-.712 4.796.711 4.973 3.736v.712c0 2.313-.533 4.447-1.243 6.582m-66.736 179.11c-2.082-7.829-2.095-15.77-.479-23.523l13.554.063c1.28 6.009 1.477 12.321.587 18.294-.416 3.505-1.179 6.814-2.929 9.932-.289.84-.825 1.633-1.461 2.278-1.955 2.182-4.37 2.099-6.213-.307l-.399-.589c-1.296-1.915-2.052-3.982-2.66-6.148m-52.594-21.503c2.664-7.651 7.104-14.234 12.788-19.749l11.19 7.65c-2.31 5.694-5.684 11.031-9.77 15.479-2.308 2.669-4.795 4.982-7.992 6.583-.71.534-1.599.889-2.487 1.067-2.841.712-4.795-.711-4.973-3.736v-.712c0-2.313.533-4.447 1.244-6.582m119.33 0c-2.664-7.651-7.105-14.234-12.788-19.749l-11.19 7.65c2.309 5.694 5.684 11.031 9.769 15.479 2.309 2.669 4.795 4.982 7.992 6.583.711.534 1.599.889 2.487 1.067 2.842.712 4.796-.711 4.973-3.736v-.712c0-2.313-.533-4.447-1.243-6.582"/><path fill="#0F1689" fill-rule="evenodd" d="M192.684 173.031c-14.077 19.504-37.004 32.199-62.896 32.199-25.891 0-48.818-12.695-62.896-32.199h19.603C97.686 184.143 113.047 191 129.996 191s32.309-6.857 43.501-17.969zm1.655-88.248c-13.893-20.849-37.618-34.584-64.551-34.584s-50.657 13.735-64.55 34.584H85.69C96.944 73.193 112.637 66 129.996 66s33.051 7.192 44.305 18.783z" clip-rule="evenodd"/></svg>
